X: 39635
T: Temple Hill
R: reel
M: 4/4
K: Edorian
|:BE E2 B2AF|BFAF DEFA|BE E2 BABc|1 dBAF E2FA:|2 dBAF E2F/G/A||
|:Bdeg f2ec|dBAF DEFA|Bdeg f2ec|1 dBAF E3A:|2 dBAF E3F|
|:g3e f3d|egfe dB B2|ge e2 fd d2|egfd e3f:|

